X: 277
T:Northern Hospitality Jig or Seamus Plagiarism
% Nottingham Music Database
S:Mike Richardson 16.12.89, via Phil Rowe
M:6/8
K:C
"C"cGE FED|"C"CEC "G"DB,G,|"C"CEG "Am"ceg|"Dm"fdc "G"BAB|
"C"cGE FED|"C"CEC "G"DB,G,|"C"CEG ceg|"G"fdB "C"c3::
"Am"ABc cBA|"E"^G2E "Am"A2E|"Dm"FED DEF|"Am"E2C A,2C|
"E"B,CD DCB,| [1"Am"A,CE ABc|"E"B2^G "B"^FGF|"E"E3 E2^G:|
 [2"Am"A,CE Ace|"F"fed "E"c2B|"Am"A3 "G"G3||


